build/img/svg/descr1.svg

<?xml version="1.0" ?><svg height="32px" version="1.1" viewBox="0 0 32 32" width="32px" xmlns="http://www.w3.org/2000/svg" xmlns:sketch="http://www.bohemiancoding.com/sketch/ns" xmlns:xlink="http://www.w3.org/1999/xlink"><title/><desc/><defs/><g fill="none" fill-rule="evenodd" id="Page-1" stroke="none" stroke-width="1"><g fill="#157EFB" id="icon-45-note-list"><path d="M5,11 L5,25.9991358 C5,27.0983727 5.8927712,28 6.99406028,28 L21,28 L21,21.9981014 C21,20.8867064 21.8980806,20 23.0059191,20 L28,20 L28,11 L5,11 L5,11 Z M5,10 L5,7.00086422 C5,5.89581743 5.90162726,5 7.00086422,5 L25.9991358,5 C27.1041826,5 28,5.89339733 28,6.99188419 L28,10 L5,10 L5,10 Z M22,28 L22,22.0029293 C22,21.4490268 22.4509752,21 22.990778,21 L28,21 L22,28 L22,28 Z M13,18 L13,19 L20,19 L20,18 L13,18 L13,18 Z M8,17 L8,20 L11,20 L11,17 L8,17 L8,17 Z M9,18 L9,19 L10,19 L10,18 L9,18 L9,18 Z M13,14 L13,15 L25,15 L25,14 L13,14 L13,14 Z M8,13 L8,16 L11,16 L11,13 L8,13 L8,13 Z M9,14 L9,15 L10,15 L10,14 L9,14 L9,14 Z M13,22 L13,23 L19,23 L19,22 L13,22 L13,22 Z M8,21 L8,24 L11,24 L11,21 L8,21 L8,21 Z M9,22 L9,23 L10,23 L10,22 L9,22 L9,22 Z" id="note-list"/></g></g></svg>

<svg height="32" viewBox="0 0 32 32" width="32" xmlns="http://www.w3.org/2000/svg"><title/><path d="M5 11v15c0 1.098.893 2 1.994 2H21v-6.002c0-1.111.898-1.998 2.006-1.998H28v-9H5zm0-1V7c0-1.104.902-2 2-2h19c1.104 0 2 .893 2 1.992V10H5zm17 18v-5.997c0-.554.451-1.003.99-1.003H28l-6 7zm-9-10v1h7v-1h-7zm-5-1v3h3v-3H8zm1 1v1h1v-1H9zm4-4v1h12v-1H13zm-5-1v3h3v-3H8zm1 1v1h1v-1H9zm4 8v1h6v-1h-6zm-5-1v3h3v-3H8zm1 1v1h1v-1H9z" fill="#157EFB" fill-rule="evenodd"/></svg>
